remix/System/apps-line.svg

<svg viewBox="0 0 24 24" fill="currentColor" xmlns="http://www.w3.org/2000/svg"><path d="M6.75 2.5C9.09721 2.5 11 4.40279 11 6.75V11H6.75C4.40279 11 2.5 9.09721 2.5 6.75C2.5 4.40279 4.40279 2.5 6.75 2.5ZM9 9V6.75C9 5.50736 7.99264 4.5 6.75 4.5C5.50736 4.5 4.5 5.50736 4.5 6.75C4.5 7.99264 5.50736 9 6.75 9H9ZM6.75 13H11V17.25C11 19.5972 9.09721 21.5 6.75 21.5C4.40279 21.5 2.5 19.5972 2.5 17.25C2.5 14.9028 4.40279 13 6.75 13ZM6.75 15C5.50736 15 4.5 16.0074 4.5 17.25C4.5 18.4926 5.50736 19.5 6.75 19.5C7.99264 19.5 9 18.4926 9 17.25V15H6.75ZM17.25 2.5C19.5972 2.5 21.5 4.40279 21.5 6.75C21.5 9.09721 19.5972 11 17.25 11H13V6.75C13 4.40279 14.9028 2.5 17.25 2.5ZM17.25 9C18.4926 9 19.5 7.99264 19.5 6.75C19.5 5.50736 18.4926 4.5 17.25 4.5C16.0074 4.5 15 5.50736 15 6.75V9H17.25ZM13 13H17.25C19.5972 13 21.5 14.9028 21.5 17.25C21.5 19.5972 19.5972 21.5 17.25 21.5C14.9028 21.5 13 19.5972 13 17.25V13ZM15 15V17.25C15 18.4926 16.0074 19.5 17.25 19.5C18.4926 19.5 19.5 18.4926 19.5 17.25C19.5 16.0074 18.4926 15 17.25 15H15Z"/></svg>

<svg viewBox="0 0 24 24" xmlns="http://www.w3.org/2000/svg"><path fill="none" d="M0 0h24v24H0Z"/><path d="M6.75 2.5v0C9.09 2.5 11 4.4 11 6.75V11H6.75v0C4.4 11 2.5 9.09 2.5 6.75 2.5 4.4 4.4 2.5 6.75 2.5ZM9 9V6.75v0C9 5.5 7.99 4.5 6.75 4.5c-1.25 0-2.25 1-2.25 2.25C4.5 7.99 5.5 9 6.75 9H9Zm-2.25 4H11v4.25 0c0 2.34-1.91 4.25-4.25 4.25 -2.35 0-4.25-1.91-4.25-4.25C2.5 14.9 4.4 13 6.75 13Zm0 2v0C5.5 15 4.5 16 4.5 17.25c0 1.24 1 2.25 2.25 2.25C7.99 19.5 9 18.49 9 17.25V15H6.75Zm10.5-12.5v0c2.34 0 4.25 1.9 4.25 4.25 0 2.34-1.91 4.25-4.25 4.25H13V6.75v0c0-2.35 1.9-4.25 4.25-4.25Zm0 6.5v0c1.24 0 2.25-1.01 2.25-2.25 0-1.25-1.01-2.25-2.25-2.25C16 4.5 15 5.5 15 6.75V9h2.25ZM13 13h4.25v0c2.34 0 4.25 1.9 4.25 4.25 0 2.34-1.91 4.25-4.25 4.25 -2.35 0-4.25-1.91-4.25-4.25V13Zm2 2v2.25 0c0 1.24 1 2.25 2.25 2.25 1.24 0 2.25-1.01 2.25-2.25C19.5 16 18.49 15 17.25 15H15Z"/></svg>
